!! 00044] TT[TB
!! Umschnitt einer Kassette von Li Wenzhen (TDK2)
!!!OTL: NN
!!!ARE: Neimeng
!! Ethnic Group: Menggu
!! MM, Quelle S. 6 Nr. 1
!!!SCT: C1209
!!!YEM: Copyright 1995, estate of Helmut Schaffrath.
**kern
*ICvox
*Ivox
*M2/4
*k[]
*C:
{8.dd
16ee
8dd
8cc
=1
8cc
4.a}
=2
{8.b
16b
8g
16e
16g
=3
2a}
=4
{8a
16dd
16dd
8cc
16a
16a
=5
8g
4.e}
=6
{16g
16e
16g
16a
8.e
16d
=7
8c
16a
16c
4d}
==
!!!AGN: NN
!!!ONB: ESAC (Essen Associative Code) Database: CHINA
!!!AMT: simple duple
!!!AIN: vox
!!!EED: Helmut Schaffrath
!!!EEV: 1.0
*-
